!!!COM:	la Rue, Pierre de
!!!CDT:	~1452///-1518/11/20
!!!OPR:	Missa Ave Maria
!!!ONM:	4
!!!OTL:	Sanctus
!!!AGN:	Mass; Sanctus
!!!SCT:	Rue1004d
!!!SCA:	Rue1004d
!!!voices:	4
!!!voices-OPR:	4(-5)
**kern	**kern	**kern	**kern
*staff4	*staff3	*staff2	*staff1
*Ivox	*Ivox	*Ivox	*Ivox
*I"Bassus	*I"Tenor	*I"Contra	*I"Discantus
*I'B	*I'T	*I'C	*I'D
*>[A,B,C,D]	*>[A,B,C,D]	*>[A,B,C,D]	*>[A,B,C,D]
*>A	*>A	*>A	*>A
*clefF4	*clefGv2	*clefGv2	*clefG2
*k[]	*k[]	*k[]	*k[]
*M2/1	*M2/1	*M2/1	*M2/1
*met(C)	*met(C)	*met(C)	*met(C)
!!section: Sanctus
!!!OMD: Sanctus
=1-	=1-	=1-	=1-
0r	0r	0c	0r
=2	=2	=2	=2
0r	0r	1G	0r
.	.	1A	.
=3	=3	=3	=3
0r	0r	2r	0cc
.	.	2A/	.
.	.	2.c\	.
.	.	4d\	.
=4	=4	=4	=4
0r	0r	1e	1g
.	.	[1f	1a
=5	=5	=5	=5
0F	0r	1f]	2r
.	.	.	2a/
.	.	1f	2.cc\
.	.	.	4dd\
=6	=6	=6	=6
1C	0r	2e\	1ee
.	.	1a	.
1D	.	.	[1ff
.	.	[2d\	.
=7	=7	=7	=7
2r	1r	2d\]	1ff]
2D\	.	1a	.
2.F\	[1c	.	1ff
.	.	[2a\	.
4G\	.	.	.
=8	=8	=8	=8
1A	1c]	4a\]	1.ee
.	.	4g\	.
.	.	2e\	.
[1B	[1G	2g\	.
.	.	4f\	[2dd\
.	.	4e\	.
=9	=9	=9	=9
1B]	1G]	1d	2dd\]
.	.	.	4cc\
.	.	.	4b\
[1A	1A	2r	2.cc\
.	.	2f\	.
.	.	.	4dd\
=10	=10	=10	=10
1A]	2.c\	2e\	4ee\
.	.	.	4cc\
.	.	1a	1ff
.	4d\	.	.
1r	1e	.	.
.	.	2g\	[2ee\
=11	=11	=11	=11
1r	0f	0a	4ee\]
.	.	.	4cc\
.	.	.	2.dd\
1D	.	.	.
.	.	.	4cc\
.	.	.	2a/
=12	=12	=12	=12
0E	0e	1.g	2cc\
.	.	.	1b
.	.	4f\	4a/
.	.	4e\	4g/
=13	=13	=13	=13
2F\	1r	2d\	2a/
1E	.	2e\	2g/
.	1e	2.c\	2e/
2C/	.	.	2g/
.	.	4B\	.
=14	=14	=14	=14
2D\	2d\	2A/	2f/
2E\	2c\	2G/	2e/
1F	1d	1A	1a
=15	=15	=15	=15
0E	1.e	2.B\	1.g
.	.	4G/	.
.	.	1G	.
.	2c\	.	4f/
.	.	.	4e/
=16	=16	=16	=16
0r	2d\	0r	2f/
.	2e\	.	1e
.	1f	.	.
.	.	.	2d/
=17	=17	=17	=17
1E	0e	1B	1e
4E\	.	4B\	1r
4F\	.	4A/	.
4G\	.	4B\	.
4A\	.	4c\	.
=18	=18	=18	=18
2B\	0r	2d\	0r
2.c\	.	1e	.
4A\	.	.	.
2B\	.	2d\	.
=19	=19	=19	=19
1E	0r	1g	1b
4E\	.	[1g	4b\
4F\	.	.	4a/
4G\	.	.	4b\
4A\	.	.	4cc\
=20	=20	=20	=20
2B\	0r	2g\]	2dd\
1c	.	4f\	1ee
.	.	4e\	.
.	.	1f	.
2B\	.	.	2dd\
=21	=21	=21	=21
2.c\	0r	2.e\	2ee\
.	.	.	2.gg\
4B\	.	4d\	.
2G\	.	2B\	.
.	.	.	4ff\
2F\	.	2A/	2dd\
=22	=22	=22	=22
2.A\	[0e	2.c\	2cc\
.	.	.	2.ee\
4G\	.	4B\	.
1E	.	1G	.
.	.	.	4dd\
.	.	.	2b\
=23	=23	=23	=23
2r	0e]	2.c\	2a/
2.C/	.	.	2.cc\
.	.	4d\	.
.	.	4e\	.
4D\	.	4f\	4b\
4E\	.	4g\	[2g/
4F\	.	4a\	.
=24	=24	=24	=24
0G	0d	2b\	4g/]
.	.	.	4a/
.	.	1cc	4b\
.	.	.	4cc\
.	.	.	1dd
.	.	2b\	.
=25	=25	=25	=25
0C	[0c	2.cc\	0ee
.	.	4b\	.
.	.	[1g	.
=26	=26	=26	=26
1C	0c]	1g]	1.gg
1E	.	2r	.
.	.	2g\	2ee\
=27	=27	=27	=27
0D	0d	2b-i\	1.ff
.	.	1a	.
.	.	4g\	4ee\
.	.	4f\	4dd\
=28	=28	=28	=28
0r	[0A	2.a\	2ff\
.	.	.	2ee\
.	.	4g\	.
.	.	2e\	4cc\
.	.	.	4dd\
.	.	4c\	4ee\
.	.	4d\	4ff\
=29	=29	=29	=29
0r	0A]	2e\	2ee\
.	.	2f\	2.dd\
.	.	1e	.
.	.	.	4cc#i\
.	.	.	2cc#i\
=30	=30	=30	=30
1D	2r	1d	1dd
.	1d	.	.
2F\	.	1r	1r
2G\	4c\	.	.
.	4B\	.	.
=31	=31	=31	=31
2A\	4c\	0r	0r
.	4d\	.	.
4G\	4e\	.	.
4F\	4f\	.	.
4G\	2e\	.	.
4F\	.	.	.
4E\	[2d\	.	.
4D\	.	.	.
=32	=32	=32	=32
1E	4d\]	1g	0r
.	4c#i\	.	.
.	2c#i\	.	.
1D	2.d\	2.f\	.
.	4cni\	4e\	.
=33	=33	=33	=33
0r	4d\	4f\	1r
.	4c\	4e\	.
.	4B\	1a	.
.	4A/	.	.
.	1B	.	1dd
.	.	2g#i\	.
=34	=34	=34	=34
0r	1A	2.a\	2.cc\
.	.	4g\	4b\
.	1r	2e\	4cc\
.	.	.	4b\
.	.	2g\	[2ee\
=35	=35	=35	=35
1D	0r	1f	2ee\]
.	.	.	2dd\
2A\	.	1e	2.ee\
2E\	.	.	.
.	.	.	4dd\
=36	=36	=36	=36
2G\	1r	2r	2b\
2F\	.	2a\	2dd\
[1E	[1e	2g\	2cc\
.	.	[2e\	[2b\
=37	=37	=37	=37
0E_	1e]	4e\]	2b\]
.	.	4f\	.
.	.	2.g\	2.ee\
.	1e	.	.
.	.	4f\	4ff\
.	.	4e\	[2gg\
.	.	4d\	.
=38	=38	=38	=38
1E]	0e	2c\	4gg\]
.	.	.	4ff\
.	.	2B\	4ee\
.	.	.	4dd\
2r	.	2A/	2.cc\
2E\	.	2G/	.
.	.	.	8b/L
.	.	.	8a/J
=39	=39	=39	=39
2.E\	2B\	2r	0g
.	2.e\	2.B\	.
4F\	.	.	.
2G\	.	.	.
.	4f\	4G/	.
2C/	[2g\	2c\	.
=40	=40	=40	=40
1E	4g\]	1B	2r
.	4f\	.	.
.	4e\	.	2g/
.	4d\	.	.
2.F\	2.c\	2A/	2a/
.	.	[2a\	[2cc\
4G\	8B/L	.	.
.	8A/J	.	.
=41	=41	=41	=41
2A\	2c\	4a\]	4cc\]
.	.	4g\	4b\
2D\	2d\	2f\	1a
1E	1B	1e	.
.	.	.	2g#i/
=42	=42	=42	=42
2r	1A	2r	2a/
2A\	.	2e\	4r
.	.	.	4a/
2E\	1r	2g\	2b\
2A\	.	2a\	2cc\
=43	=43	=43	=43
2G\	2r	2d\	1dd
2F\	2A/	1a	.
1E	4B\	.	1ee
.	4A/	.	.
.	4B\	2g\	.
.	4c\	.	.
=44	=44	=44	=44
1D	1d	2.f\	1ff
.	.	8e\L	.
.	.	8d\J	.
1r	1e	2c\	2ee\
.	.	2A/	[2ee\
=45	=45	=45	=45
1D	1f	1a	2ee\]
.	.	.	2dd\
2.E\	2e\	1g	2cc\
.	[2e\	.	[2b\
4F\	.	.	.
=46	=46	=46	=46
4G\	2e\]	4r	4b\]
4E\	.	4g\	4cc\
4F\	2d\	4a\	4dd\
4G\	.	2g\	4b\
2A\	2c\	.	2cc\
.	.	4f\	.
2G\	[2d\	2g\	[2b\
=47	=47	=47	=47
2D\	4d\]	2f\	2b\]
.	4c\	.	.
2F\	2A/	2d\	2.a/
1E	1B	1e	.
.	.	.	4g#i/
.	.	.	2g#i/
=48	=48	=48	=48
0AAl	0Al	0el	0al
!!LO:LB:i:g=z
=49||	=49||	=49||	=49||
*>B	*>B	*>B	*>B
*clefF4	*clefGv2	*clefGv2	*clefG2
*k[]	*k[]	*k[]	*k[]
*M2/1	*M2/1	*M2/1	*M2/1
*met(C2)	*met(C2)	*met(C2)	*met(C2)
!!section: Pleni sunt celi
!!!OMD: Pleni sunt celi
0r	0r	1r	1a
.	.	[1a	4a/
.	.	.	4b\
.	.	.	4cc\
.	.	.	4dd\
=50.	=50.	=50.	=50.
0r	0r	1a]	1ee
.	.	1a	2cc\
.	.	.	[2ff\
=51	=51	=51	=51
0r	0r	1g	2ff\]
.	.	.	1ee
.	.	1f	.
.	.	.	2dd\
=52.	=52.	=52.	=52.
0r	0r	0e	2cc\
.	.	.	1b
.	.	.	[2ee\
=53	=53	=53	=53
0r	0r	0a	2ee\]
.	.	.	1cc
.	.	.	[2ff\
=54.	=54.	=54.	=54.
0r	0r	1g	2ff\]
.	.	.	1ee
.	.	1f	.
.	.	.	2dd\
=55	=55	=55	=55
0r	0r	1.e	2cc\
.	.	.	2.b\
.	.	.	4e/
.	.	2A/	[2ee\
=56.	=56.	=56.	=56.
0r	0r	0a	2ee\]
.	.	.	2dd\
.	.	.	2cc\
.	.	.	2a/
=57	=57	=57	=57
1r	0r	2.g\	1b
.	.	4e\	.
[1A	.	2f\	1r
.	.	[2e\	.
=58.	=58.	=58.	=58.
1A]	0r	2e\]	0r
.	.	4A/	.
.	.	4B\	.
[1A	.	4c\	.
.	.	4d\	.
.	.	2e\	.
=59	=59	=59	=59
1A]	0r	2c\	0r
.	.	1f	.
1G	.	.	.
.	.	[2e\	.
=60.	=60.	=60.	=60.
1F	0r	2e\]	0r
.	.	2d\	.
[1E	.	2c\	.
.	.	[2B\	.
=61	=61	=61	=61
1E]	0r	2B\]	1r
.	.	2e\	.
1A	.	2c\	1cc
.	.	[2f\	.
=62.	=62.	=62.	=62.
1G	0r	2f\]	2b\
.	.	1e	2g/
1F	.	.	2a/
.	.	2d\	2f/
=63	=63	=63	=63
0E	0r	2c\	2g/
.	.	4B\	2cc\
.	.	4A/	.
.	.	2B\	2b\
.	.	2e\	2g/
=64.	=64.	=64.	=64.
1A	0r	2c\	2a/
.	.	2f\	2f/
1G	.	2e\	2g/
.	.	2d\	[2b\
=65	=65	=65	=65
1F	0r	4d\	2b\]
.	.	4c\	.
.	.	4B\	1a
.	.	4A/	.
1E	.	1B	.
.	.	.	2g#i/
=66.	=66.	=66.	=66.
[0A	0r	1A	0a
.	.	2r	.
.	.	2e\	.
=67	=67	=67	=67
0A]	0r	2c\	0r
.	.	1f	.
.	.	[2e\	.
=68.	=68.	=68.	=68.
0r	0r	2e\]	2r
.	.	1e	2ee\
.	.	.	2cc\
.	.	2d\	[2ff\
=69	=69	=69	=69
1A	0r	2.c\	2ff\]
.	.	.	1ee
.	.	4A/	.
2G\	.	2B\	.
2F\	.	2A/	2dd\
=70.	=70.	=70.	=70.
0E	0r	1.e	2cc\
.	.	.	1b
.	.	2c\	2ee\
=71	=71	=71	=71
2r	0r	0f	2cc\
2A\	.	.	2.ff\
2F\	.	.	.
.	.	.	4ee\
[2B-i\	.	.	4dd\
.	.	.	4cc\
=72.	=72.	=72.	=72.
2B-\]	0r	2r	2dd\
2.A\	.	1f	2cc\
.	.	.	2a/
4G\	.	.	.
2G\	.	[2e\	[2ee\
=73	=73	=73	=73
1A	0r	2e\]	2ee\]
.	.	1e	1cc
1F	.	.	.
.	.	2d\	[2ff\
=74.	=74.	=74.	=74.
2E\	0r	2e\	2ff\]
2C/	.	2g\	1ee
1D	.	1f	.
.	.	.	2dd\
=75	=75	=75	=75
2r	0r	1e	2ee\
2A\	.	.	2cc\
2F\	.	1r	2.ff\
[2B-i\	.	.	.
.	.	.	4ee\
=76.	=76.	=76.	=76.
2B-\]	0r	2r	2dd\
1A	.	2e\	1cc
.	.	2c\	.
[2A\	.	[2f\	[2cc\
=77	=77	=77	=77
4A\]	0r	4f\]	4cc\]
4G\	.	4e\	4b\
2G\	.	1e	2b\
2A\	.	.	2cc\
4G\	.	2d\	4b\
4F\	.	.	4a/
=78.	=78.	=78.	=78.
0E	0r	2e\	0g
.	.	4d\	.
.	.	4c\	.
.	.	2B\	.
.	.	2e\	.
=79	=79	=79	=79
2A\	0r	2c\	0r
2F\	.	1f	.
1B-i	.	.	.
.	.	4e\	.
.	.	4d\	.
=80.	=80.	=80.	=80.
1A	0r	2f\	2r
.	.	2.e\	2ee\
[1A	.	.	2cc\
.	.	4d\	.
.	.	4c\	[2ff\
.	.	4B\	.
=81	=81	=81	=81
1A]	0r	2A/	2ff\]
.	.	2c\	2.ee\
1G	.	1B	.
.	.	.	4dd\
.	.	.	2b\
=82.	=82.	=82.	=82.
0A	0r	2r	2a/
.	.	2e\	1cc
.	.	2c\	.
.	.	[2f\	4b\
.	.	.	4a/
=83	=83	=83	=83
2r	0r	2f\]	2cc\
2E\	.	2.e\	1g
2C/	.	.	.
.	.	4d\	.
[2F\	.	4c\	[2a/
.	.	4B\	.
=84.	=84.	=84.	=84.
2F\]	0r	2A/	4a/]
.	.	.	4g/
2.E\	.	2g\	2e/
.	.	1a	2.f/
4D\	.	.	.
2D\	.	.	.
.	.	.	4g/
=85	=85	=85	=85
2E\	0r	2g\	1e
2C/	.	2e\	.
1D	.	2.f\	2r
.	.	.	2dd\
.	.	4g\	.
=86.	=86.	=86.	=86.
1C	0r	2e\	1ee
.	.	2a\	.
2r	.	2f\	2.dd\
2G\	.	[2b-\	.
.	.	.	4b\
=87	=87	=87	=87
1A	0r	2b-\]	1cc
.	.	1a	.
2G\	.	.	2b\
2E\	.	2g\	2ee\
=88.	=88.	=88.	=88.
2F\	0r	1a	2cc\
2D\	.	.	1ff
2E\	.	2g\	.
2C/	.	2e\	[2ee\
=89	=89	=89	=89
1D	0r	1f	2ee\]
.	.	.	2dd\
2r	.	[1e	2cc\
2E\	.	.	2b\
=90.	=90.	=90.	=90.
2C/	0r	2e\]	2.cc\
1F	.	2c\	.
.	.	.	4b\
.	.	2d\	2a/
[2E\	.	2e\	4g/
.	.	.	4f/
=91	=91	=91	=91
2E\]	0r	2c\	2e/
2D\	.	2d\	1a
1E	.	1B	.
.	.	.	2g/
=92.	=92.	=92.	=92.
2r	0r	2A/	2a/
2G\	.	2e\	2b\
2A\	.	2c\	2cc\
2B\	.	[2f\	4dd\
.	.	.	4cc\
=93	=93	=93	=93
2.c\	0r	4f\]	4b\
.	.	4e\	4a/
.	.	1e	1a
4d\	.	.	.
1B	.	.	.
.	.	2d\	2g#i/
=94.	=94.	=94.	=94.
0Al	0r	0el	0al
!!LO:LB:i:g=z
=95||	=95||	=95||	=95||
*>C	*>C	*>C	*>C
*clefF4	*clefGv2	*clefGv2	*clefG2
*k[]	*k[]	*k[]	*k[]
*M3/1	*M3/1	*M3/1	*M3/1
*met(C|3)	*met(C|3)	*met(C|3)	*met(C|3)
!!section: Osanna
!!!OMD: Osanna
0.r	0.r	0c	0.r
.	.	1G	.
=96	=96	=96	=96
0.r	0.r	2A/	0cc
.	.	2B\	.
.	.	2c\	.
.	.	2d\	.
.	.	1e	1g
=97	=97	=97	=97
0F	0.r	0f	2a/
.	.	.	2b\
.	.	.	2cc\
.	.	.	2dd\
1C	.	1e	1ee
=98	=98	=98	=98
2D\	0.r	1.d	0ff
2E\	.	.	.
2F\	.	.	.
2G\	.	2c\	.
1A	.	1c	1ee
=99	=99	=99	=99
0B-	0.r	0d	1dd
.	.	.	1.ff
[1A	.	[1e	.
.	.	.	2ee\
=100	=100	=100	=100
1A]	0.r	1e]	0ee
0D	.	0f	.
.	.	.	1dd
=101	=101	=101	=101
1.A	0c	0e	0.ee
2G\	.	.	.
1E	1G	1r	.
=102	=102	=102	=102
1.F	2A/	0a	0.r
.	2B\	.	.
.	2c\	.	.
2E\	2d\	.	.
1C	[1e	2g\	.
.	.	2f\	.
=103	=103	=103	=103
1E	1e]	2e\	0ee
.	.	2d\	.
1.A	1.f	1.c	.
.	.	.	1dd
2G\	2e\	2B\	.
=104	=104	=104	=104
1E	0e	1G	1cc
0F	.	1.A	0dd
.	1d	.	.
.	.	2B\	.
=105	=105	=105	=105
1.E	1e	1c	1.g
.	1e	0B	.
2F\	.	.	2a/
1G	1d	.	1b
=106	=106	=106	=106
1A	1c	1e	1.cc
0G	1.d	0g	.
.	.	.	2b\
.	.	.	1b
.	2e\	.	.
=107	=107	=107	=107
2C/	0.e	1.g	1cc
2D\	.	.	.
2E\	.	.	1.b
2F\	.	2f\	.
1G	.	2e\	.
.	.	2d\	2a/
=108	=108	=108	=108
1A	0.r	1c	1.a
0E	.	0B	.
.	.	.	2g#i/
.	.	.	1g#i
=109	=109	=109	=109
1A	0e	1c	1a
1E	.	1.g	2cc\
.	.	.	2b\
1G	1d	.	2b\
.	.	2f\	2a/
=110	=110	=110	=110
1A	1c	2f\	1cc
.	.	2e\	.
1G	1.d	1g	1.b
1A	.	1e	.
.	2c\	.	2a/
=111	=111	=111	=111
1F	1A	1d	0a
0E	0B	0e	.
.	.	.	1g#i
=112	=112	=112	=112
1r	0.A	1.c	1a
1A	.	.	1.cc
.	.	2B\	.
1F	.	1A	.
.	.	.	2dd\
=113	=113	=113	=113
1G	0.r	1B	2ee\
.	.	.	2ff\
0E	.	1.G	1gg
.	.	.	1ee
.	.	2A/	.
=114	=114	=114	=114
0D	0d	1A	1.ff
.	.	1a	.
.	.	.	2ee\
1G	[1d	1b	2ee\
.	.	.	2dd\
=115	=115	=115	=115
1B	1d]	1g	0dd
0A	0e	0a	.
.	.	.	1cc#i
=116	=116	=116	=116
1D	0d	1a	0dd
2G\	.	2g\	.
2A\	.	2f\	.
1B	1d	1g	1b
=117	=117	=117	=117
1c	1e	1e	1a
1.A	1.c	1.f	1.cc
2G\	2d\	2g\	2b\
=118	=118	=118	=118
0G	0d	0g	1b
.	.	.	1dd
1r	1r	1r	1cc
=119	=119	=119	=119
1G	1.d	1.g	2b\
.	.	.	2cc\
1B	.	.	2dd\
.	2c\	2f\	2b\
1A	1c	1f	1cc
=120	=120	=120	=120
1.G	1d	1.g	1b
.	1B	.	1dd
2B\	.	2d\	.
1A	1c	2e\	1cc
.	.	2f\	.
=121	=121	=121	=121
1G	1d	1g	1b
1A	2c\	0e	2a/
.	2A/	.	1a
1E	1B	.	.
.	.	.	2g/
=122	=122	=122	=122
1A	1A	1f	1a
2G\	1r	2e\	1ee
2E\	.	2c\	.
1F	1r	1d	2dd\
.	.	.	2b\
=123	=123	=123	=123
0E	0e	1e	1cc
.	.	1.g	1.b
[1E	2d\	.	.
.	2B\	2f\	2a/
=124	=124	=124	=124
1E]	1c	0.e	1.a
0E	0B	.	.
.	.	.	2g#i/
.	.	.	1g#i
=125	=125	=125	=125
0.AAl	0.Al	0.el	0.al
!!LO:LB:i:g=z
!!LO:TX:rj:i:t=fine
=126||	=126||	=126||	=126||
*>D	*>D	*>D	*>D
*clefF4	*clefGv2	*clefGv2	*clefG2
*k[]	*k[]	*k[]	*k[]
*M2/1	*M2/1	*M2/1	*M2/1
*met(C2)	*met(C2)	*met(C2)	*met(C2)
!!section: Benedictus
!!!OMD: Benedictus
1r	0r	1.e	0r
[1A	.	.	.
.	.	2c\	.
=127.	=127.	=127.	=127.
1A]	0r	2e\	0r
.	.	2f\	.
1B-	.	2g\	.
.	.	4f\	.
.	.	4e\	.
=128	=128	=128	=128
1B-i	0r	1d	0r
[1A	.	1c	.
=129.	=129.	=129.	=129.
2A\]	0r	2r	0r
2F\	.	1f	.
2A\	.	.	.
2B-i\	.	4e\	.
.	.	4d\	.
=130	=130	=130	=130
2c\	0r	2e\	0r
4B-i\	.	2c\	.
4A\	.	.	.
1G	.	2d\	.
.	.	2e\	.
=131.	=131.	=131.	=131.
1F	0r	2f\	0r
.	.	4e\	.
.	.	4d\	.
2r	.	1c	.
[2A\	.	.	.
=132	=132	=132	=132
2A\]	0r	2r	0r
4G\	.	1e	.
4F\	.	.	.
2G\	.	.	.
2E\	.	4d\	.
.	.	4c\	.
=133.	=133.	=133.	=133.
2F\	0r	2d\	0r
2G\	.	2B\	.
2A\	.	2c\	.
4G\	.	2d\	.
4F\	.	.	.
=134	=134	=134	=134
2E\	0r	2e\	0r
1A	.	4d\	.
.	.	4c\	.
.	.	2B\	.
4G\	.	[2e\	.
4F\	.	.	.
=135.	=135.	=135.	=135.
2G\	0r	2e\]	0r
2E\	.	4d\	.
.	.	4c\	.
2F\	.	2d\	.
2G\	.	2B\	.
=136	=136	=136	=136
2A\	0r	2c\	0ee
4G\	.	2d\	.
4F\	.	.	.
1E	.	2e\	.
.	.	4d\	.
.	.	4c\	.
=137.	=137.	=137.	=137.
2.D\	0r	2B\	1ff
.	.	1c	.
4C/	.	.	.
1D	.	.	1ff
.	.	2B\	.
=138	=138	=138	=138
[0C	0r	[0c	1.ee
.	.	.	2cc\
=139.	=139.	=139.	=139.
0C]	0r	0c]	2ee\
.	.	.	2ff\
.	.	.	2gg\
.	.	.	4ff\
.	.	.	4ee\
=140	=140	=140	=140
0r	0r	2r	1dd
.	.	1f	.
.	.	.	1cc
.	.	[2e\	.
=141.	=141.	=141.	=141.
0r	0r	2e\]	2r
.	.	4d\	1ff
.	.	4c\	.
.	.	2d\	.
.	.	2B\	2dd\
=142	=142	=142	=142
0r	0r	2c\	2ee\
.	.	1f	2cc\
.	.	.	2dd\
.	.	2e\	2ee\
=143.	=143.	=143.	=143.
0F	0r	2d\	2ff\
.	.	4c\	4ee\
.	.	4B\	4dd\
.	.	1A	2cc\
.	.	.	[2ff\
=144	=144	=144	=144
1G	0r	1r	2ff\]
.	.	.	2ee\
1G	.	1d	2dd\
.	.	.	4cc\
.	.	.	4b\
=145.	=145.	=145.	=145.
2.F\	0r	1.f	1a
4G\	.	.	.
2A\	.	.	1r
2B-i\	.	2f\	.
=146	=146	=146	=146
1G	0r	1g	1dd
[1F	.	[1a	[1ff
=147.	=147.	=147.	=147.
1F]	0r	1a]	2ff\]
.	.	.	2ff\
2G\	.	2g\	1ee
2A\	.	2c\	.
=148	=148	=148	=148
2.B-i\	0r	2.f\	2.dd\
4A\	.	4g\	4cc\
4F\	.	4a\	4a/
4G\	.	4g\	4b\
2A\	.	4e\	2cc\
.	.	4f\	.
=149.	=149.	=149.	=149.
2G\	0r	4g\	4b\
.	.	4f\	4a/
2B\	.	4e\	1dd
.	.	4d\	.
1A	.	1e	.
.	.	.	2cc#i\
=150	=150	=150	=150
2r	0r	0d	1dd
2.D\	.	.	.
.	.	.	2r
4E\	.	.	.
2F\	.	.	2a/
=151.	=151.	=151.	=151.
2G\	0r	0r	2b\
2E\	.	.	2g/
2F\	.	.	2a/
2G\	.	.	2b\
=152	=152	=152	=152
2A\	0r	2r	2cc\
4G\	.	2A/	4b\
4F\	.	.	4a/
2E\	.	2B\	1g
2G\	.	2G/	.
=153.	=153.	=153.	=153.
0F	0r	2A/	0r
.	.	2B\	.
.	.	2c\	.
.	.	2d\	.
=154	=154	=154	=154
2E\	0r	2e\	1r
1A	.	4d\	.
.	.	4c\	.
.	.	1B	2r
2G\	.	.	2b\
=155.	=155.	=155.	=155.
2A\	0r	1A	2cc\
2F\	.	.	2a/
2G\	.	2r	2b\
2A\	.	2e\	2cc\
=156	=156	=156	=156
0D	0r	1.f	2dd\
.	.	.	4cc\
.	.	.	4b\
.	.	.	1a
.	.	2d\	.
=157.	=157.	=157.	=157.
2r	0r	2e\	0r
2A\	.	2f\	.
2B\	.	2g\	.
2c\	.	4f\	.
.	.	4e\	.
=158	=158	=158	=158
1d	0r	2d\	2r
.	.	2f\	2a/
1G	.	2g\	2b\
.	.	2e\	2g/
=159.	=159.	=159.	=159.
0r	0r	2f\	2a/
.	.	2g\	2b\
.	.	2a\	2cc\
.	.	4g\	2dd\
.	.	4f\	.
=160	=160	=160	=160
1r	0r	0e	2ee\
.	.	.	4dd\
.	.	.	4cc\
2r	.	.	2b\
2A\	.	.	2ee\
=161.	=161.	=161.	=161.
2B\	0r	1g	2dd\
2G\	.	.	1ee
2A\	.	1f	.
2B\	.	.	2dd\
=162	=162	=162	=162
2c\	0r	1e	0ee
4B\	.	.	.
4A\	.	.	.
2G\	.	2r	.
2A\	.	2e\	.
=163.	=163.	=163.	=163.
1F	0r	2f\	1r
.	.	2d\	.
1E	.	2e\	2r
.	.	2g\	2ee\
=164	=164	=164	=164
1r	0r	1f	2ff\
.	.	.	2dd\
2r	.	1e	2ee\
2A\	.	.	2cc\
=165.	=165.	=165.	=165.
2B\	0r	2r	2dd\
2c\	.	2g\	2ee\
1F	.	2a\	2.ff\
.	.	2f\	.
.	.	.	4ee\
=166	=166	=166	=166
1c	0r	2g\	2ee\
.	.	2e\	2cc\
1B	.	2f\	1dd
.	.	2g\	.
=167.	=167.	=167.	=167.
1A	0r	2a\	1cc
.	.	4g\	.
.	.	4f\	.
2r	.	2e\	2r
2c\	.	2g\	2ee\
=168	=168	=168	=168
2d\	0r	1f	2ff\
2B\	.	.	2dd\
2c\	.	1e	2ee\
2A\	.	.	2cc\
=169.	=169.	=169.	=169.
1G	0r	2r	2dd\
.	.	2g\	2ee\
1F	.	2a\	2.ff\
.	.	2f\	.
.	.	.	4ee\
=170	=170	=170	=170
1c	0r	2g\	2ee\
.	.	2e\	2cc\
1B	.	2f\	1dd
.	.	2g\	.
=171.	=171.	=171.	=171.
1A	0r	0a	[0ccl
[1c	.	.	.
=172	=172	=172	=172
1c]	0r	2g\	0cc_
.	.	2e\	.
1F	.	1f	.
=173.	=173.	=173.	=173.
0Cl	0r	0el	0cc]
!!LO:TX:Y=40:rj:t=[Osanna ut supra]
=||	=||	=||	=||
*-	*-	*-	*-
!!!RDF**kern: l=long note in original notation
!!!RDF**kern: i=editorial accidental
!!!ENC:	Chris Gage 12-04-2012
!!!END:	2013/05/24/
!!!EED:	Jesse Rodin
!!!EEV:	2013/07/19/
!!!ONB:	Translated from MusicXML and edited on 2013/07/19/ by Craig Sapp
!!muse2ps: T^@{OPR}^u^@{ONM}{. }@{OTL}^C^@{COM}^i2I150v85,85,85,150Q16c70
